!! J.S. Bach, Die Kunst der Fuge, Fuga 3 in d minor; BWV 1080.
!! Encoded from "Bach; Die Kunst der Fuge", (Carl Czerny, ed.)
!! New York: C.F. Peters Co., pp.6-7; in four voices.
!! Performance duration: 3:07; performance tempo: 107.8 quarter-notes per min.
!! (Davitt Moroney, harpsichord, "Bach, 'Die Kunst der Fuge'",
!! Harmonia Mundi No. HMC 1169.70)
**kern	**kern	**kern	**kern
*d:	*d:	*d:	*d:
*M2/2	*M2/2	*M2/2	*M2/2
*MM107.8	*MM107.8	*MM107.8	*MM107.8
=1	=1	=1	=1
2D	1r	1r	1r
2A	.	.	.
=2	=2	=2	=2
2F	1r	1r	1r
2D	.	.	.
=3	=3	=3	=3
2C#	1r	1r	1r
4D	.	.	.
4E	.	.	.
=4	=4	=4	=4
[2F	1r	1r	1r
8.F]	.	.	.
16G	.	.	.
8.F	.	.	.
16E	.	.	.
=5	=5	=5	=5
8.D	2A	1r	1r
16E	.	.	.
8.D	.	.	.
[16C	.	.	.
8.C]	2d	.	.
16D	.	.	.
8.C	.	.	.
[16BBn	.	.	.
=6	=6	=6	=6
8.BB]	2c	1r	1r
16AA	.	.	.
8.BBn	.	.	.
16C	.	.	.
8.D	2A	.	.
16E	.	.	.
8.F	.	.	.
16D	.	.	.
=7	=7	=7	=7
8.E	2G#	1r	1r
16F	.	.	.
8.E	.	.	.
16D	.	.	.
8.C	4A	.	.
16BBn	.	.	.
8.AA	4Bn	.	.
16GG#	.	.	.
=8	=8	=8	=8
8.AA	[2c	1r	1r
16A	.	.	.
8.G#	.	.	.
16A	.	.	.
4D	8.c]	.	.
.	16d	.	.
[4Gn	8.c	.	.
.	16B-	.	.
=9	=9	=9	=9
8.G]	[2A	2d	1r
16F	.	.	.
8.E	.	.	.
16D	.	.	.
2C#	8.A]	2a	.
.	16g	.	.
.	8.f	.	.
.	16e	.	.
=10	=10	=10	=10
4D	8.d	2f	1r
.	16c	.	.
4DD	8.B-	.	.
.	16A	.	.
8.GG	8.B-	2d	.
16AA	16A	.	.
[4BB-	8.G	.	.
.	16F	.	.
=11	=11	=11	=11
8.BB-]	2E	2c#	1r
16BB-	.	.	.
8.AA	.	.	.
16GG	.	.	.
4FF	8.r	4d	.
.	16A	.	.
4EE	8.Bn	4e	.
.	16c#	.	.
=12	=12	=12	=12
8.DD	[2d	[2f	1r
16D	.	.	.
8.E	.	.	.
16F	.	.	.
8.G	4d]	8.f]	.
16B-	.	16g	.
8.A	4c#	8.f	.
16G	.	16e	.
=13	=13	=13	=13
8.F	4.d	8.d	2a
16G	.	16e	.
8.F	.	8.f	.
.	16r	.	.
16E	16e	16g	.
8.D	2f	[2a	2dd
16E	.	.	.
8.F	.	.	.
16G	.	.	.
=14	=14	=14	=14
2A	4e	8.a]	2cc
.	.	16g	.
.	2c	8.f	.
.	.	[16e	.
[2F	.	8.e]	2a
.	.	16f	.
.	4A	8.e	.
.	.	[16d	.
=15	=15	=15	=15
8.F]	2Bn	8.d]	2g#
16F	.	16d	.
8.E	.	8.e	.
16D	.	16f	.
4C	8.r	4e	4a
.	16E	.	.
4BBn	8.F#	4d	4bn
.	16G#	.	.
=16	=16	=16	=16
8.r	2.A	4c	[2cc
16AA	.	.	.
8.BBn	.	4e	.
16C	.	.	.
4D	.	4f	8.cc]
.	.	.	16dd
4E	4G#	[4e	8.cc
.	.	.	16bn
=17	=17	=17	=17
[2F	4A	8.e]	[1a
.	.	16c#	.
.	8.Bn	8.d	.
.	16c#	16e	.
8.F]	4d	4f	.
16E	.	.	.
8.D	[4G	[4e	.
16C#	.	.	.
=18	=18	=18	=18
[2D	8.G]	8.e]	1a]
.	16G	16e	.
.	8.F	8.d	.
.	16E	16c#	.
8.D]	4F	4d	.
16Cn	.	.	.
8.BB-	[4F#	[4cn	.
16AA	.	.	.
=19	=19	=19	=19
[2BB-	8.F]	4c]	[1d
.	16D	.	.
.	8.E	8.B-	.
.	16F#	16A	.
8.BB-]	4G	4B-	.
16AA	.	.	.
8.GG	[4C	[4A	.
16FF#	.	.	.
=20	=20	=20	=20
[2.GG	8.C]	8.A]	1d_
.	16AA	16F#	.
.	8.BB-	8.G	.
.	16C	16A	.
.	8.D	4B-	.
.	16C#	.	.
8.GG]	4D	4A	.
16FFn	.	.	.
=21	=21	=21	=21
[1EE	4E	4G#	8.d]
.	.	.	16c#
.	4r	4r	8.d
.	.	.	16f
.	2r	2r	8.e
.	.	.	16d
.	.	.	8.g#
.	.	.	16a
=22	=22	=22	=22
2EE]	2r	2r	8.bn
.	.	.	16cc
.	.	.	8.dd
.	.	.	[16f
2E	2G#	2Bn	8.f]
.	.	.	32e
.	.	.	32d
.	.	.	8.c#
.	.	.	16d
=23	=23	=23	=23
4AA	4E	8.A	4c#
.	.	16e	.
4r	4r	8.f	4r
.	.	16g	.
2r	8.r	2a	2r
.	16A	.	.
.	8.Bn	.	.
.	16c#	.	.
=24	=24	=24	=24
8.r	4d	2f	1r
16D	.	.	.
8.E	2cn	.	.
16F	.	.	.
8.G	.	2d	.
16A	.	.	.
8.G	[4B-	.	.
16F	.	.	.
=25	=25	=25	=25
8.E	8.B-]	2c#	1r
16B-	16G	.	.
8.A	8.F	.	.
16G	16E	.	.
8.F	[2A	4d	.
16E	.	.	.
8.D	.	4e	.
16C#	.	.	.
=26	=26	=26	=26
4D	8.A]	[2f	2a
.	16d	.	.
4F	8.c#	.	.
.	16d	.	.
4BBn	4G#	8.f]	2dd
.	.	16a	.
4E	[4Bn	8.g#	.
.	.	16f#	.
=27	=27	=27	=27
2AA	8.B]	[2e	2cc
.	16E	.	.
.	8.A	.	.
.	16Gn	.	.
[2D	[2F	8.e]	2a
.	.	16A	.
.	.	8.d	.
.	.	16c	.
=28	=28	=28	=28
8.D]	4F]	2Bn	2g#
16BBn	.	.	.
8.E	4E	.	.
16D	.	.	.
4C	2r	8.r	4a
.	.	16e	.
4BB	.	8.f#	4bn
.	.	16g#	.
=29	=29	=29	=29
4AA	8.r	2.a	[2cc
.	16gn	.	.
4r	8.fn	.	.
.	16e	.	.
2r	4d#	.	8.cc]
.	.	.	16ddn
.	4e	4g#	8.cc
.	.	.	16bn
=30	=30	=30	=30
1r	2A	8.a	4cc
.	.	16gn	.
.	.	8.f	[4aa
.	.	16e	.
.	4Bn	4d	8.aa]
.	.	.	16gg
.	4c#	4g	8.ff
.	.	.	[16ee
=31	=31	=31	=31
2D	2d	2f	8.ee]
.	.	.	16ff
.	.	.	8.ee
.	.	.	[16dd
2A	2r	2e	8.dd]
.	.	.	16ee
.	.	.	8.dd
.	.	.	16cc#
=32	=32	=32	=32
2F	8.r	2d	2dd
.	16A	.	.
.	8.Bn	.	.
.	16c#	.	.
2D	8.d	2r	2r
.	16e	.	.
.	8.f	.	.
.	16d	.	.
=33	=33	=33	=33
2C#	4e	8.r	1r
.	.	16b-	.
.	4E	8.a	.
.	.	16g	.
4D	4F	8.f	.
.	.	16e	.
4E	4G	8.d	.
.	.	16c#	.
=34	=34	=34	=34
[2F	4A	4d	8.r
.	.	.	16aa
.	4r	4dd	8.gg#
.	.	.	16aa
8.F]	2r	4bn	4dd
16G	.	.	.
8.F	.	4cc#	[4ggn
16E	.	.	.
=35	=35	=35	=35
4D	4r	4dd	8.gg]
.	.	.	16ff
4r	[4d	4r	8.ee
.	.	.	16dd
2r	8.d]	4r	4ee
.	16cn	.	.
.	8.B-	[4ccn	4aa
.	16A	.	.
=36	=36	=36	=36
4r	4B-	8.cc]	4dd
.	.	16b-	.
[4G	4Bn	8.a	4ee
.	.	16g	.
8.G]	4c#	2a	4e
16F	.	.	.
8.E	[4d	.	4f
16D	.	.	.
=37	=37	=37	=37
2E	8.d]	4g#	4e
.	16c	.	.
.	8.Bn	4cc	[4ee
.	16A	.	.
2r	4B	4f#	8.ee]
.	.	.	16dd
.	4e	4g#	8.cc
.	.	.	16bn
=38	=38	=38	=38
1r	2A	8.a	8.cc
.	.	16b-	16dd
.	.	8.a	[4ee
.	.	16gn	.
.	2d	8.f	8.ee]
.	.	16a	16ff
.	.	8.g	8.ee
.	.	[16f	16dd
=39	=39	=39	=39
1r	2c	8.f]	4aa
.	.	16e	.
.	.	8.f#	4r
.	.	16g#	.
.	2A	8.a	2r
.	.	16bn	.
.	.	8.cc	.
.	.	16a	.
=40	=40	=40	=40
8.r	2G#	[2bn	1r
16F	.	.	.
8.E	.	.	.
16D	.	.	.
4C	4A	8.b]	.
.	.	16a	.
[4F	4Bn	8.g#	.
.	.	16a	.
=41	=41	=41	=41
4F]	[2c	8.d#	8.r
.	.	16A	16ee
2F#	.	2a	8.dd#
.	.	.	16ee
.	8.c]	.	4a
.	16dn	.	.
4G#	8.c	[4e	[4ddn
.	16Bn	.	.
=42	=42	=42	=42
2A	[2A	4e]	8.dd]
.	.	.	16cc
.	.	4fn	8.b-
.	.	.	16a
2r	8.A]	4d	[2b-
.	16G	.	.
.	8.F	4g	.
.	16E	.	.
=43	=43	=43	=43
1r	4F	8.c	8.b-]
.	.	16f	16a
.	4B-	8.e	8.g
.	.	[16d	16f
.	4E	8.d]	[2g
.	.	16e	.
.	4A	8.d	.
.	.	16c#	.
=44	=44	=44	=44
1r	4D	2.d	8.g]
.	.	.	16f
.	8.E	.	8.g
.	16F	.	16a
.	8.G	.	8.b-
.	16A	.	16cc
.	[4B-	4g	8.dd
.	.	.	16ee
=45	=45	=45	=45
1r	8.B-]	[2c	2ff
.	16A	.	.
.	8.G	.	.
.	16F	.	.
.	2E	8.c]	2ccc
.	.	16B-	.
.	.	8.A	.
.	.	16G	.
=46	=46	=46	=46
1r	4F	8.F	2aa
.	.	16f	.
.	4r	8.g	.
.	.	16a	.
.	4r	8.b-	2ff
.	.	16cc	.
.	[4B-	8.dd	.
.	.	16b-	.
=47	=47	=47	=47
1r	8.B-]	4cc	2ee
.	16d	.	.
.	8.c	4g	.
.	16B-	.	.
.	8.A	[2cc	4ff
.	16G	.	.
.	8.F	.	4gg
.	16E	.	.
=48	=48	=48	=48
1r	8.F	2cc]	[2aa
.	16f	.	.
.	8.e	.	.
.	16f	.	.
.	4B-	4dd	8.aa]
.	.	.	16bb-
.	[4e-	8.cc	8.aa
.	.	16b-	16gg
=49	=49	=49	=49
1r	8.e-]	2a	2ff#
.	16e-	.	.
.	8.d	.	.
.	16c	.	.
.	8.B-	2dd	4gg
.	16A	.	.
.	8.G	.	[4aa
.	16F#	.	.
=50	=50	=50	=50
1r	8.G	2b-	8.aa]
.	16A	.	16dd
.	2B-	.	8.gg
.	.	.	16ff
.	.	2g	8.ee-
.	.	.	16dd
.	8.A	.	8.cc
.	16B-	.	16b-
=51	=51	=51	=51
8.r	4c	2f#	2a
16E-	.	.	.
8.D	4e-	.	.
16C	.	.	.
8.BB-	[2d	4g	2r
16AA	.	.	.
8.GG	.	4a	.
16FF#	.	.	.
=52	=52	=52	=52
8.GG	4d]	[2b-	1r
16G	.	.	.
8.F#	4d	.	.
16G	.	.	.
[2C	4en	8.b-]	.
.	.	16cc	.
.	[4fn	8.b-	.
.	.	16a	.
=53	=53	=53	=53
2C]	8.f]	4g	1r
.	16f	.	.
.	8.e-	4b-	.
.	16d	.	.
2F	8.c	4a	.
.	16B-	.	.
.	8.A	[4cc	.
.	16G	.	.
=54	=54	=54	=54
2D	4F	8.cc]	1r
.	.	16f	.
.	4r	8.g	.
.	.	16a	.
2BB-	2r	8.b-	.
.	.	16cc	.
.	.	8.dd	.
.	.	16b-	.
=55	=55	=55	=55
2AA	4r	2cc	8.r
.	.	.	16gg
.	4C	.	8.ff
.	.	.	16ee-
4BB-	4D	[2f	8.dd
.	.	.	16cc
4C	4E-	.	8.b-
.	.	.	16a
=56	=56	=56	=56
[2D	4F	8.f]	2b-
.	.	16a-	.
.	2B-	8.g	.
.	.	16f	.
8.D]	.	4g	[2ee-
16E-	.	.	.
8.D	4e-	4an	.
16C	.	.	.
=57	=57	=57	=57
8.BB-	2f	2b-	8.ee-]
16B-	.	.	16dd
8.A	.	.	8.cc#
16B-	.	.	16dd
4En	8.r	2r	4g
.	16cn	.	.
4F#	8.B-	.	[4ccn
.	16A	.	.
=58	=58	=58	=58
[2G	4G	8.r	4cc]
.	.	16g	.
.	4e-	8.f#	4b-
.	.	16g	.
8.G]	4c#	4en	[2a
16Fn	.	.	.
8.En	[4d	[4fn	.
16D	.	.	.
=59	=59	=59	=59
1B-	8d]	8.f]	8.a]
.	8r	.	.
.	.	16d	16ff
.	4r	8.c#	8.gg
.	.	16d	16ff
.	2r	[2g	8.ee
.	.	.	16dd
.	.	.	8.cc#
.	.	.	16dd
=60	=60	=60	=60
4A	4r	4g]	8.cc#
.	.	.	16aa
4r	2d	4f	8.bb-
.	.	.	16aa
2r	.	4e	8.gg
.	.	.	16ff
.	4c#	[4a	8.ee
.	.	.	16ff
=61	=61	=61	=61
2D	2D	4a]	8.gg
.	.	.	16ff
.	.	4r	8.ee
.	.	.	[16dd
2A	2e	2r	8.dd]
.	.	.	16ee
.	.	.	8.dd
.	.	.	16cc#
=62	=62	=62	=62
2F	4A	8.r	4dd
.	.	16b-	.
.	8.Bn	8.a	4r
.	16c#	[16g	.
2D	4d	8.g]	4r
.	.	16a	.
.	4r	8.g	[4b-
.	.	16f	.
=63	=63	=63	=63
2C#	4r	4e	8.b-]
.	.	.	16b-
.	4E	4A	8.a
.	.	.	16g
4D	4F	2B-	8.f
.	.	.	16e
4E	4G	.	8.d
.	.	.	16c#
=64	=64	=64	=64
[2F	2A	4A	8.d
.	.	.	16dd
.	.	4a	8.ee
.	.	.	16ff
8.F]	2r	4b-	[2gg
16G	.	.	.
8.F	.	4cc#	.
16E	.	.	.
=65	=65	=65	=65
[2D	8.r	4dd	4gg]
.	16A	.	.
.	8.Bn	4r	8.ff
.	16c#	.	16ee
8.D]	4d	2r	4ff
16E-	.	.	.
8.D	4F#	.	4aa
16Cn	.	.	.
=66	=66	=66	=66
[2BB-	4G	8.r	2dd
.	.	16g	.
.	4r	8.a	.
.	.	16b-	.
8.BB-]	2r	[2cc	4een
16C	.	.	.
8.BB-	.	.	4ff#
16AA	.	.	.
=67	=67	=67	=67
8.GG	1r	4cc]	2.gg
16D	.	.	.
8.E	.	8.b-	.
16F#	.	16a	.
8.G	.	4b-	.
16A	.	.	.
8.G	.	4a	[4dd
16Fn	.	.	.
=68	=68	=68	=68
4E	1r	2g	8.dd]
.	.	.	16ee
4A	.	.	8.dd
.	.	.	[16cc
4D	.	2f	8.cc]
.	.	.	16dd
4G	.	.	8.cc
.	.	.	[16b-
=69	=69	=69	=69
2C#	4r	2e	8.b-]
.	.	.	16b-
.	2A	.	8.a
.	.	.	16g
2D	.	4d	8.f
.	.	.	16cc
.	[4d	[4f	8.b-
.	.	.	16a
=70	=70	=70	=70
2E	4d]	8.f]	4.g#
.	.	16f	.
.	2c	[4e	.
.	.	.	16r
.	.	.	16g#
2F	.	8.e]	4.a
.	.	16e	.
.	[4A	4d	.
.	.	.	16r
.	.	.	16a
=71	=71	=71	=71
2BBn	4A]	4r	8.dd
.	.	.	16ee
.	4G#	8.r	4ff
.	.	16dd	.
[2C	4A	8.cc	[2ee
.	.	16bn	.
.	4Bn	8.a	.
.	.	16g#	.
=72	=72	=72	=72
4C]	[2c	2a	8.ee]
.	.	.	16aa
4D	.	.	8.gg#
.	.	.	16aa
2E	8.c]	4r	8.ee
.	16d	.	16ff#
.	8.c#	[4ee	[4ggn
.	16Bn	.	.
=73	=73	=73	=73
4F	2A	8.ee]	4gg]
.	.	16a	.
4D	.	8.dd	2ffn
.	.	16cc	.
[2G	[2B-	8.b-	.
.	.	16a	.
.	.	8.g	8.ee
.	.	16f	16dd
=74	=74	=74	=74
4G]	8.B-]	[2e	4cc#
.	16B-	.	.
4C#	8.A	.	4ee
.	16G	.	.
4D	8.F	8.e]	[2a
.	16E	16g	.
4AA	8.D	8.f	.
.	16C#	16e	.
=75	=75	=75	=75
2.BB-	4D	8.d	4a]
.	.	16cn	.
.	8.E	8.B-	2d
.	16F#	16A	.
.	8.G	2B-	.
.	16Fn	.	.
4GG	8.E	.	[4g
.	16D	.	.
=76	=76	=76	=76
[1AA	2C#	2.A	8.g]
.	.	.	16b-
.	.	.	8.a
.	.	.	[16g
.	2D	.	8.g]
.	.	.	16a
.	.	4Bn	8.g
.	.	.	[16f
=77	=77	=77	=77
1AA_	2E	2c#	8.f]
.	.	.	16g
.	.	.	8.f
.	.	.	[16e
.	2F	2G#	8.e]
.	.	.	16f
.	.	.	8.e
.	.	.	[16d
=78	=78	=78	=78
2AA_	2E	2A	8.d]
.	.	.	16Bn
.	.	.	8.c#
.	.	.	16e
8.AA]	4r	4r	8.A
16BB-	.	.	16g
8.AA	4A	4c#	8.f
[16GG	.	.	16e
=79	=79	=79	=79
8.GG]	2A	8.d	2d
16AA	.	16f	.
8.GG	.	8.e	.
[16FF	.	16d	.
8.FF]	2r	8.c#	2a
16GG	.	16A	.
8.FF.	.	8.Bn	.
16EE	.	16c#	.
=80	=80	=80	=80
4DD	8.r	4d	2f
.	16D	.	.
4r	8.E	2cn	.
.	16F	.	.
8.r	8.G	.	2d
16EE	16A	.	.
8.FF	8.G	[4B-	.
16GG	16F	.	.
=81	=81	=81	=81
2AA	8.E	8.B-]	2c#
.	16G	16B-	.
.	8.F	8.A	.
.	16E	16G	.
8.r	2D	4F	4d
16BB-	.	.	.
8.AA	.	4B-	4e
16GG	.	.	.
=82	=82	=82	=82
8.AA	4C#	2A	[2f
16FF	.	.	.
8.EE	2D	.	.
16DD	.	.	.
4GG	.	4B-	8.f]
.	.	.	16g
4AA	4C#	[4A	8.f
.	.	.	16e
=83	=83	=83	=83
8.BB-	4D	8.A]	[1d
16Cn	.	16F#	.
8.BB-	8.E	8.G	.
16AA	16F#	16A	.
8.GG	[2G	[2B-	.
16AA	.	.	.
8.BB-	.	.	.
16GG	.	.	.
=84	=84	=84	=84
2D	8.G]	8.B-]	1d;]
.	16F#	16A	.
.	8.G	8.B-	.
.	16E	16G	.
2DD;	2F#;	2A;	.
====	====	====	====
*-	*-	*-	*-
